X:1
T: London Highland Society
C:Lord MacDonald
R:Strathspey
Q: 128
K:G
M:4/4
L:1/16
|:D1/2E1/2F|G2G,2 D2G,2 G2G,2 EDCB,|A,2AB cBAG F3G A3B|G3g fgaf g3a bgdB|ABcA Bcdc B2G2 G2D1/2E1/2F|
GFED EDCB, CDEF GDB,D|A,2AB cBAG F3G A2B2|G3A B2c2 dcBA GFED|^C3E G2A2 F3D D3F|
DDD2 D3E F3G A3B|c3d e3f g2d2 d3b|bagf g2d2 B3c c2BA|^G3B d2e2 ^c2A2 A2=c2|
DDD2 D3E FEFG AGAB|cBcd edef g2d2 d3b|bagf g2d2 B3d B2AG|E2c2 A2GF G2G,2 G,2:|
